X:1
T: Aikendrum Polka
R: polka
C: Rick Gagne
N: 1996 on fiddle
M: 2/4
L: 1/8
Q: 2/4=70
K: D
"D"a2 af | "G"gB Bg | "D"fd df | "A"ec AG |
"D"FA df | "Em"gB Bg | "Bm"fd "A"ec |1 "D"de fg :|2 "D"d2 dB ||
"A"A2 Ag | "D"fd df | "A"eA Ag | "Bm"fd dB |
"A"A2 Ag | "D"fd df | "A"eA gf |1 "G"d2 dB :|2 "G"de fg ||
